X:1
T:Title
%%score 1 2
L:1/8
M:4/2
K:C
V:1 treble nm="Part_1"
V:2 bass nm="Part_2"
V:1
 A8 ^G4 G4 | A6 G2 F2 E2 F4 | E16 | F4 E4 D2 E4 A2 | G3 F E2 c3 c d2 B4 | A8 D4 E2 C2- | %6
 CC D2 B,4 A,2 A2 G3 F | G2 A4 GF E3 DEC F2- | FE A4 ^G2 A8 | D4 D4 E6 D2 | C2 B,2 C4 B,8 | %11
 F4 E4 D2 E4 D2 | E6 C2 D3 D E2 E2- | EE D2 D4 ^C6 E2 | D3 C B,2 C3 C D2 B,4 | C2 C2 D3 D E4 E4- | %16
 E2 DC B,4 C4 A4- | A2 E2 FEFD E4 D4 | F2 G2 A2 GF E8 | B,C D4 ^C2 D2 E2 F2 G2 | %20
 AGAB cBcA Bc d4 ^c2 | d6 A2 c3 B A2 A2 | G8 E2 B,2 CB,CA, | B,4 A,4 C2 D2 E2 F2 | G8 F4 E4 | %25
 A,2 B,2 C2 D2 EDEF GFGE |[M:4/4] FG A4 ^G2 |[M:4/2] B2 A2 B3 c A2 ^G2 A4 | G4 G2 B2 c4 B4 | %29
 G2 E2 A6 GF ^G4 | A8 F8- | F4 E4 E6 D2 | E4 D4 D4 G4 | G2 E4 D2 E4 E4- | %34
 E2 B,2 CB,CA, B,4 B,2 G2 | F2 E2 D4 C4 E3 E | E2 E2 DCDE FEFD E2 C2 | B,4 C4 E4 E2 E2 | %38
 F4 CA, D4 C2 B,4 | C2 E2 A4 ^G2 A2 F=GAB | c6 BA G2 ^F2 G4 | G8 z4 ^G4 | A8- A2 Bc d4 | %43
 B4 c2 c4 d2 A4 | G8 z8 | z4 z2 G2 F2 E2 D4 | C6 G2 G2 A2 B2 c2 | A6 G2 F4 E4 | D2 D2 E2 C2 E6 D2 | %49
 C4 B,2 B2 ^c2 d2 B4 | C2 D2 B,4 A,2 A2 A2 c2 | B4 A4 ^F2 G2 E2 c2 | B2 c2 A4 G8- | G4 ^G4 A8 | %54
 A4 _B4 A8 | G8 D2 B,2 G4 | d6 B2 d4 B2 B2 | c3 c ^c4 d2 A4 A2 | B8 A8 | %59
 ^G,2 A,2 F,=G,A,B, C2 B,2 A,2 E2 | F3 F E2 F2 E2 DC B,2 A,2 | B,2 E2 A3 A G2 A2 FGAB | %62
 c2 B2 A4 z8 | z8 z2 B,2 E3 E | D2 B,2 CDEF G2 F2 E2 B,2 | C2 A,2 B,2 B2 c2 A2 B4 | %66
 F2 D2 E2 B2 c2 A2 ^G2 B2 | d3 c B2 A2 ^G2 A4 G2 | A8 E6 A2 | AGFE D2 E2 F8 | E16 |] %71
V:2
 A,,8 E,4 E,4 | F,6 E,2 D,2 C,2 D,4 | A,8 ^G,4 G,4 | A,6 G,2 F,2 E,2 F,4 | E,8 F,2 D,2 E,4 | %5
 A,,6 A,2 G,3 F, E,4 | F,2 D,2 E,4 A,,2 A,2 C3 D | C4 D6 CB, A,4- | A,2 G,F, E,4 A,8 | %9
 ^F,4 G,4 C,8 | A,8 ^G,4 G,4 | A,6 G,2 F,2 E,2 F,4 | E,6 A,2 G,3 F, E,2 C,2- | C,C, D,2 B,,4 A,,8 | %14
 ^F,2 G,4 E,2 =F,2 D,2 E,4 | A,,2 A,2 G,3 F, G,2 A,4 G,F, | E,8 A,,8 | A,6 D2 ^C4 D4 | %18
 D,2 E,2 F,2 G,2 A,G,A,B, CB,CA, | G,2 F,2 E,4 D,8 | F,8 G,2 F,2 E,4 | D,4 D4 C3 G, A,2 F,2 | %22
 E,8 E,6 A,2 | ^G,4 A,4 A,,2 B,,2 C,2 D,2 | E,D,E,F, G,F,G,E, F,G, A,4 ^G,2 | A,4 A,,4 C,8 | %26
[M:4/4] D,4 E,4 |[M:4/2] A,,2 A,2 G,3 C, D,2 E,2 A,,4- | A,,4 E,2 E,2 A,,4 B,,4 | C,6 D,2 E,6 E,2 | %30
 A,,8 D,6 E,2 | F,2 G,2 A,2 A,,2 C,2 D,2 E,2 B,,2 | C,2 A,,2 D,B,,C,D, D,6 G,2 | G,2 A,2 F,4 E,8 | %34
 E,4 A,,4 E,6 E,2 | F,2 C,2 G,4 C,8- | C,4 G,4 D,4 A,,4 | E,4 A,,4 A,4 ^G,2 A,2 | %38
 F,4- F,2 D,2 E,8 | A,,8 E,2 C,2 ^D,4 | A,,B,,C,D, E,F, G,4 A,2 G,4 | C,8 E,8 | %42
 A,,2 B,,C, D,4- D,8 | G,,4 C,2 C,4 B,,2 D,4 | G,,6 G,,2 F,,2 E,,2 D,,4 | C,,8 F,2 D,2 G,4 | %46
 C,4 C4 B,2 A,2 G,2 A,2 | F,G,A,B, C2 C2 D4 A,4 | G,2 F,2 E,2 F,2 C,D,E,F, G,2 G,2 | %49
 A,4 E,2 E,2 A,2 D,2 E,2 E,2 | F,2 D,2 E,4 A,,2 A,2 D2 A,2 | D4 A,2 A,,2 D,2 G,,2 A,,2 A,2 | %52
 G,2 E,2 F,4 C,4 C,4- | C,4 B,,4 ^C,8 | D,16 | G,,8 G,6 G,,2 | G,8 G,,4 G,,4 | %57
 C,3 C, A,,4 D,4 D,2 ^C,2 | E,8 A,,8 | E,2 C,2 D,4 A,,2 E,2 A,,2 A,,2 | %60
 D,3 D, ^C,2 D,2 A,,B,,=C,D, E,2 F,2 | E,4 A,4 E,2 A,2 D,4 | A,,2 E,2 A,,2 A,,2 A,3 A, ^G,2 A,2 | %63
 D,E,F,G, A,2 A,,2 E,8 | ^F,2 G,2 A,4 E,2 D,2 A,,2 E,2 | A,2 F,2 E,2 E,2 A,2 F,2 E,4 | %66
 D,2 F,2 E,2 E,2 A,2 F,2 E,2 E,2 | D,8 E,8 | A,,8- A,,2 A,2 A,G,F,E, | D,6 ^C,2 D,8 | A,,16 |] %71

